src/images/tile/5.svg

<svg width="280" height="280" xmlns="http://www.w3.org/2000/svg"><g fill="#000" fill-rule="nonzero"><path d="M2.006 280H0c0-74.814 29.083-145.115 82.034-197.966C134.986 29.184 205.186 0 280 0v2.006c-74.212 0-144.112 28.882-196.562 81.432C30.888 135.988 2.006 205.788 2.006 280zM140.026 280H138c0-78.292 63.708-142 142-142v2.026c-77.178 0-139.974 62.796-139.974 139.974z"/><path d="M71.9 279.2h-2c0-8.4.5-16.9 1.5-25.2l2 .2c-1 8.3-1.5 16.7-1.5 25zm7.2-54.2l-1.9-.5c3.7-13.5 8.7-26.8 15.1-39.3l1.7.8c-6.3 12.4-11.3 25.5-14.9 39zm30.2-64.6l-1.6-1.1a214.3 214.3 0 0 1 27.5-31.9l1.4 1.5c-10.2 9.5-19.3 20.1-27.3 31.5zm50.3-50.5l-1.2-1.6c11.5-8.1 23.8-15.1 36.7-20.8l.8 1.8c-12.8 5.6-25 12.5-36.3 20.6zM224 79.3l-.5-1.9c13.5-3.7 27.5-6.1 41.5-7l.1 2c-13.9.9-27.7 3.2-41.1 6.9z"/></g></svg>

<?xml version="1.0" encoding="UTF-8" standalone="no"?>
<svg
   xmlns:dc="http://purl.org/dc/elements/1.1/"
   xmlns:cc="http://creativecommons.org/ns#"
   xmlns:rdf="http://www.w3.org/1999/02/22-rdf-syntax-ns#"
   xmlns:svg="http://www.w3.org/2000/svg"
   xmlns="http://www.w3.org/2000/svg"
   xml:space="preserve"
   enable-background="new 0 0 279.2 279.2"
   viewBox="0 0 279.2 279.2"
   y="0px"
   x="0px"
   id="Ebene_1"
   version="1.1"><metadata
     id="metadata206"><rdf:RDF><cc:Work
         rdf:about=""><dc:format>image/svg+xml</dc:format><dc:type
           rdf:resource="http://purl.org/dc/dcmitype/StillImage" /><dc:title></dc:title></cc:Work></rdf:RDF></metadata><defs
     id="defs204" /><path
     id="path195"
     d="M2,279.2H0c0-74.6,29-144.7,81.8-197.4S204.6,0,279.2,0v2c-74,0-143.7,28.8-196,81.2C30.8,135.6,2,205.2,2,279.2z" /><path
     id="path197"
     d="M141,279.5h-2c0-77.3,62.9-140.2,140.2-140.2v2C203,141.3,141,203.3,141,279.5z" /><path
     id="path199"
     d="M71.9,279.2h-2c0-8.4,0.5-16.9,1.5-25.2l2,0.2C72.4,262.5,71.9,270.9,71.9,279.2z M79.1,225l-1.9-0.5  c3.7-13.5,8.7-26.8,15.1-39.3L94,186C87.7,198.4,82.7,211.5,79.1,225z M109.3,160.4l-1.6-1.1c8.1-11.5,17.3-22.2,27.5-31.9l1.4,1.5  C126.4,138.4,117.3,149,109.3,160.4z M159.6,109.9l-1.2-1.6c11.5-8.1,23.8-15.1,36.7-20.8l0.8,1.8  C183.1,94.9,170.9,101.8,159.6,109.9z M224,79.3l-0.5-1.9c13.5-3.7,27.5-6.1,41.5-7l0.1,2C251.2,73.3,237.4,75.6,224,79.3z" /></svg>
